images/16759086.svg

<?xml version="1.0" encoding="UTF-8"?>
<svg xmlns="http://www.w3.org/2000/svg" xmlns:xlink="http://www.w3.org/1999/xlink" width="300pt" height="300pt" viewBox="0 0 300 300" version="1.1">
<defs>
<g>
<symbol overflow="visible" id="glyph0-0">
<path style="stroke:none;" d="M 0.59375 2.125 L 0.59375 -8.46875 L 6.59375 -8.46875 L 6.59375 2.125 Z M 1.265625 1.453125 L 5.9375 1.453125 L 5.9375 -7.78125 L 1.265625 -7.78125 Z M 1.265625 1.453125 "/>
</symbol>
<symbol overflow="visible" id="glyph0-1">
<path style="stroke:none;" d="M 4.734375 -7.953125 C 3.867188 -7.953125 3.179688 -7.628906 2.671875 -6.984375 C 2.171875 -6.347656 1.921875 -5.472656 1.921875 -4.359375 C 1.921875 -3.265625 2.171875 -2.394531 2.671875 -1.75 C 3.179688 -1.113281 3.867188 -0.796875 4.734375 -0.796875 C 5.585938 -0.796875 6.265625 -1.113281 6.765625 -1.75 C 7.273438 -2.394531 7.53125 -3.265625 7.53125 -4.359375 C 7.53125 -5.472656 7.273438 -6.347656 6.765625 -6.984375 C 6.265625 -7.628906 5.585938 -7.953125 4.734375 -7.953125 Z M 4.734375 -8.90625 C 5.953125 -8.90625 6.925781 -8.492188 7.65625 -7.671875 C 8.394531 -6.847656 8.765625 -5.742188 8.765625 -4.359375 C 8.765625 -2.984375 8.394531 -1.882812 7.65625 -1.0625 C 6.925781 -0.238281 5.953125 0.171875 4.734375 0.171875 C 3.503906 0.171875 2.519531 -0.238281 1.78125 -1.0625 C 1.039062 -1.882812 0.671875 -2.984375 0.671875 -4.359375 C 0.671875 -5.742188 1.039062 -6.847656 1.78125 -7.671875 C 2.519531 -8.492188 3.503906 -8.90625 4.734375 -8.90625 Z M 4.734375 -8.90625 "/>
</symbol>
<symbol overflow="visible" id="glyph0-2">
<path style="stroke:none;" d="M 1.171875 -8.75 L 2.765625 -8.75 L 6.65625 -1.4375 L 6.65625 -8.75 L 7.796875 -8.75 L 7.796875 0 L 6.203125 0 L 2.328125 -7.3125 L 2.328125 0 L 1.171875 0 Z M 1.171875 -8.75 "/>
</symbol>
<symbol overflow="visible" id="glyph0-3">
<path style="stroke:none;" d="M 1.171875 -8.75 L 2.359375 -8.75 L 2.359375 -5.15625 L 6.65625 -5.15625 L 6.65625 -8.75 L 7.84375 -8.75 L 7.84375 0 L 6.65625 0 L 6.65625 -4.171875 L 2.359375 -4.171875 L 2.359375 0 L 1.171875 0 Z M 1.171875 -8.75 "/>
</symbol>
</g>
</defs>
<g id="surface52089">
<rect x="0" y="0" width="300" height="300" style="fill:rgb(100%,100%,100%);fill-opacity:1;stroke:none;"/>
<path style="fill:none;stroke-width:1.2;stroke-linecap:butt;stroke-linejoin:miter;stroke:rgb(0%,0%,0%);stroke-opacity:1;stroke-miterlimit:10;" d="M 35.25 132.28125 L 66.695312 130.511719 "/>
<path style="fill:none;stroke-width:1.2;stroke-linecap:butt;stroke-linejoin:miter;stroke:rgb(0%,0%,0%);stroke-opacity:1;stroke-miterlimit:10;" d="M 66.695312 130.511719 L 75.324219 143.683594 "/>
<path style="fill:none;stroke-width:1.2;stroke-linecap:butt;stroke-linejoin:miter;stroke:rgb(100%,0%,0%);stroke-opacity:1;stroke-miterlimit:10;" d="M 75.324219 143.683594 L 83.953125 156.859375 "/>
<path style="fill:none;stroke-width:1.2;stroke-linecap:butt;stroke-linejoin:miter;stroke:rgb(100%,0%,0%);stroke-opacity:1;stroke-miterlimit:10;" d="M 83.953125 156.859375 L 99.675781 155.976562 "/>
<path style="fill:none;stroke-width:1.2;stroke-linecap:butt;stroke-linejoin:miter;stroke:rgb(0%,0%,0%);stroke-opacity:1;stroke-miterlimit:10;" d="M 99.675781 155.976562 L 115.398438 155.089844 "/>
<path style=" stroke:none;fill-rule:nonzero;fill:rgb(100%,100%,100%);fill-opacity:1;" d="M 78.953125 149.859375 L 88.953125 149.859375 L 88.953125 163.859375 L 78.953125 163.859375 Z M 78.953125 149.859375 "/>
<g style="fill:rgb(100%,0%,0%);fill-opacity:1;">
  <use xlink:href="#glyph0-1" x="78.953125" y="160.998047"/>
</g>
<path style="fill:none;stroke-width:1.2;stroke-linecap:butt;stroke-linejoin:miter;stroke:rgb(0%,0%,0%);stroke-opacity:1;stroke-miterlimit:10;" d="M 119.011719 155.910156 L 121.066406 146.839844 "/>
<path style="fill:none;stroke-width:1.2;stroke-linecap:butt;stroke-linejoin:miter;stroke:rgb(100%,0%,0%);stroke-opacity:1;stroke-miterlimit:10;" d="M 121.066406 146.839844 L 123.125 137.773438 "/>
<path style="fill:none;stroke-width:1.2;stroke-linecap:butt;stroke-linejoin:miter;stroke:rgb(0%,0%,0%);stroke-opacity:1;stroke-miterlimit:10;" d="M 111.785156 154.269531 L 113.839844 145.203125 "/>
<path style="fill:none;stroke-width:1.2;stroke-linecap:butt;stroke-linejoin:miter;stroke:rgb(100%,0%,0%);stroke-opacity:1;stroke-miterlimit:10;" d="M 113.839844 145.203125 L 115.898438 136.132812 "/>
<path style=" stroke:none;fill-rule:nonzero;fill:rgb(0%,0%,0%);fill-opacity:1;" d="M 132.652344 181.441406 L 120.046875 152.046875 L 110.75 158.136719 Z M 132.652344 181.441406 "/>
<path style=" stroke:none;fill-rule:nonzero;fill:rgb(100%,100%,100%);fill-opacity:1;" d="M 114.511719 129.953125 L 124.511719 129.953125 L 124.511719 143.953125 L 114.511719 143.953125 Z M 114.511719 129.953125 "/>
<g style="fill:rgb(100%,0%,0%);fill-opacity:1;">
  <use xlink:href="#glyph0-1" x="114.511719" y="141.091797"/>
</g>
<path style="fill:none;stroke-width:1.2;stroke-linecap:butt;stroke-linejoin:miter;stroke:rgb(0%,0%,0%);stroke-opacity:1;stroke-miterlimit:10;" d="M 132.652344 181.441406 L 104.644531 195.847656 "/>
<path style="fill:none;stroke-width:1.2;stroke-linecap:butt;stroke-linejoin:miter;stroke:rgb(0%,0%,0%);stroke-opacity:1;stroke-miterlimit:10;" d="M 132.652344 181.441406 L 157.054688 161.523438 "/>
<path style="fill:none;stroke-width:1.2;stroke-linecap:butt;stroke-linejoin:miter;stroke:rgb(0%,0%,0%);stroke-opacity:1;stroke-miterlimit:10;" d="M 155.007812 203.625 L 132.652344 181.441406 "/>
<path style="fill:none;stroke-width:1.2;stroke-linecap:butt;stroke-linejoin:miter;stroke:rgb(0%,0%,0%);stroke-opacity:1;stroke-miterlimit:10;" d="M 104.644531 195.847656 L 109.691406 226.933594 "/>
<path style="fill:none;stroke-width:1.2;stroke-linecap:butt;stroke-linejoin:miter;stroke:rgb(0%,0%,0%);stroke-opacity:1;stroke-miterlimit:10;" d="M 109.691406 226.933594 L 140.820312 231.742188 "/>
<path style="fill:none;stroke-width:1.2;stroke-linecap:butt;stroke-linejoin:miter;stroke:rgb(0%,0%,0%);stroke-opacity:1;stroke-miterlimit:10;" d="M 140.820312 231.742188 L 155.007812 203.625 "/>
<path style="fill:none;stroke-width:1.2;stroke-linecap:butt;stroke-linejoin:miter;stroke:rgb(0%,0%,0%);stroke-opacity:1;stroke-miterlimit:10;" d="M 155.601562 207.28125 L 171.148438 204.757812 "/>
<path style="fill:none;stroke-width:1.2;stroke-linecap:butt;stroke-linejoin:miter;stroke:rgb(100%,0%,0%);stroke-opacity:1;stroke-miterlimit:10;" d="M 171.148438 204.757812 L 186.691406 202.234375 "/>
<path style="fill:none;stroke-width:1.2;stroke-linecap:butt;stroke-linejoin:miter;stroke:rgb(0%,0%,0%);stroke-opacity:1;stroke-miterlimit:10;" d="M 154.414062 199.96875 L 169.960938 197.445312 "/>
<path style="fill:none;stroke-width:1.2;stroke-linecap:butt;stroke-linejoin:miter;stroke:rgb(100%,0%,0%);stroke-opacity:1;stroke-miterlimit:10;" d="M 169.960938 197.445312 L 185.503906 194.921875 "/>
<path style=" stroke:none;fill-rule:nonzero;fill:rgb(100%,100%,100%);fill-opacity:1;" d="M 181.097656 191.578125 L 191.097656 191.578125 L 191.097656 205.578125 L 181.097656 205.578125 Z M 181.097656 191.578125 "/>
<g style="fill:rgb(100%,0%,0%);fill-opacity:1;">
  <use xlink:href="#glyph0-1" x="181.097656" y="202.716797"/>
</g>
<path style="fill:none;stroke-width:1.2;stroke-linecap:butt;stroke-linejoin:miter;stroke:rgb(0%,0%,0%);stroke-opacity:1;stroke-miterlimit:10;" d="M 157.054688 161.523438 L 152.007812 130.433594 "/>
<path style="fill:none;stroke-width:1.2;stroke-linecap:butt;stroke-linejoin:miter;stroke:rgb(0%,0%,0%);stroke-opacity:1;stroke-miterlimit:10;" d="M 157.054688 161.523438 L 171.777344 167.113281 "/>
<path style="fill:none;stroke-width:1.2;stroke-linecap:butt;stroke-linejoin:miter;stroke:rgb(0%,0%,100%);stroke-opacity:1;stroke-miterlimit:10;" d="M 171.777344 167.113281 L 186.5 172.699219 "/>
<path style="fill:none;stroke-width:1.2;stroke-linecap:butt;stroke-linejoin:miter;stroke:rgb(0%,0%,0%);stroke-opacity:1;stroke-miterlimit:10;" d="M 152.007812 130.433594 L 122.558594 119.261719 "/>
<path style="fill:none;stroke-width:1.2;stroke-linecap:butt;stroke-linejoin:miter;stroke:rgb(0%,0%,0%);stroke-opacity:1;stroke-miterlimit:10;" d="M 151.691406 122.390625 L 128.132812 113.449219 "/>
<path style="fill:none;stroke-width:1.2;stroke-linecap:butt;stroke-linejoin:miter;stroke:rgb(0%,0%,0%);stroke-opacity:1;stroke-miterlimit:10;" d="M 176.410156 110.519531 L 152.007812 130.433594 "/>
<path style="fill:none;stroke-width:1.2;stroke-linecap:butt;stroke-linejoin:miter;stroke:rgb(0%,0%,0%);stroke-opacity:1;stroke-miterlimit:10;" d="M 122.558594 119.261719 L 117.515625 88.171875 "/>
<path style="fill:none;stroke-width:1.2;stroke-linecap:butt;stroke-linejoin:miter;stroke:rgb(0%,0%,0%);stroke-opacity:1;stroke-miterlimit:10;" d="M 117.515625 88.171875 L 141.914062 68.257812 "/>
<path style="fill:none;stroke-width:1.2;stroke-linecap:butt;stroke-linejoin:miter;stroke:rgb(0%,0%,0%);stroke-opacity:1;stroke-miterlimit:10;" d="M 124.640625 91.921875 L 144.160156 75.988281 "/>
<path style="fill:none;stroke-width:1.2;stroke-linecap:butt;stroke-linejoin:miter;stroke:rgb(0%,0%,0%);stroke-opacity:1;stroke-miterlimit:10;" d="M 141.914062 68.257812 L 171.363281 79.429688 "/>
<path style="fill:none;stroke-width:1.2;stroke-linecap:butt;stroke-linejoin:miter;stroke:rgb(0%,0%,0%);stroke-opacity:1;stroke-miterlimit:10;" d="M 171.363281 79.429688 L 176.410156 110.519531 "/>
<path style="fill:none;stroke-width:1.2;stroke-linecap:butt;stroke-linejoin:miter;stroke:rgb(0%,0%,0%);stroke-opacity:1;stroke-miterlimit:10;" d="M 164.550781 83.726562 L 168.589844 108.597656 "/>
<path style="fill:none;stroke-width:1.2;stroke-linecap:butt;stroke-linejoin:miter;stroke:rgb(0%,0%,100%);stroke-opacity:1;stroke-miterlimit:10;" d="M 186.5 172.699219 L 198.703125 162.742188 "/>
<path style="fill:none;stroke-width:1.2;stroke-linecap:butt;stroke-linejoin:miter;stroke:rgb(0%,0%,0%);stroke-opacity:1;stroke-miterlimit:10;" d="M 198.703125 162.742188 L 210.902344 152.785156 "/>
<path style=" stroke:none;fill-rule:nonzero;fill:rgb(100%,100%,100%);fill-opacity:1;" d="M 177.5 165.699219 L 195.5 165.699219 L 195.5 179.699219 L 177.5 179.699219 Z M 177.5 165.699219 "/>
<g style="fill:rgb(0%,0%,100%);fill-opacity:1;">
  <use xlink:href="#glyph0-2" x="177.5" y="176.837891"/>
  <use xlink:href="#glyph0-3" x="186.476562" y="176.837891"/>
</g>
<path style="fill:none;stroke-width:1.2;stroke-linecap:butt;stroke-linejoin:miter;stroke:rgb(0%,0%,0%);stroke-opacity:1;stroke-miterlimit:10;" d="M 214.558594 152.191406 L 212.035156 136.644531 "/>
<path style="fill:none;stroke-width:1.2;stroke-linecap:butt;stroke-linejoin:miter;stroke:rgb(100%,0%,0%);stroke-opacity:1;stroke-miterlimit:10;" d="M 212.035156 136.644531 L 209.511719 121.101562 "/>
<path style="fill:none;stroke-width:1.2;stroke-linecap:butt;stroke-linejoin:miter;stroke:rgb(0%,0%,0%);stroke-opacity:1;stroke-miterlimit:10;" d="M 207.246094 153.378906 L 204.722656 137.832031 "/>
<path style="fill:none;stroke-width:1.2;stroke-linecap:butt;stroke-linejoin:miter;stroke:rgb(100%,0%,0%);stroke-opacity:1;stroke-miterlimit:10;" d="M 204.722656 137.832031 L 202.199219 122.289062 "/>
<path style="fill:none;stroke-width:1.2;stroke-linecap:butt;stroke-linejoin:miter;stroke:rgb(0%,0%,0%);stroke-opacity:1;stroke-miterlimit:10;" d="M 210.902344 152.785156 L 225.625 158.371094 "/>
<path style="fill:none;stroke-width:1.2;stroke-linecap:butt;stroke-linejoin:miter;stroke:rgb(100%,0%,0%);stroke-opacity:1;stroke-miterlimit:10;" d="M 225.625 158.371094 L 240.347656 163.957031 "/>
<path style=" stroke:none;fill-rule:nonzero;fill:rgb(100%,100%,100%);fill-opacity:1;" d="M 200.855469 114.695312 L 210.855469 114.695312 L 210.855469 128.695312 L 200.855469 128.695312 Z M 200.855469 114.695312 "/>
<g style="fill:rgb(100%,0%,0%);fill-opacity:1;">
  <use xlink:href="#glyph0-1" x="200.855469" y="125.833984"/>
</g>
<path style="fill:none;stroke-width:1.2;stroke-linecap:butt;stroke-linejoin:miter;stroke:rgb(100%,0%,0%);stroke-opacity:1;stroke-miterlimit:10;" d="M 240.347656 163.957031 L 252.550781 154 "/>
<path style="fill:none;stroke-width:1.2;stroke-linecap:butt;stroke-linejoin:miter;stroke:rgb(0%,0%,0%);stroke-opacity:1;stroke-miterlimit:10;" d="M 252.550781 154 L 264.75 144.042969 "/>
<path style=" stroke:none;fill-rule:nonzero;fill:rgb(100%,100%,100%);fill-opacity:1;" d="M 235.347656 156.957031 L 245.347656 156.957031 L 245.347656 170.957031 L 235.347656 170.957031 Z M 235.347656 156.957031 "/>
<g style="fill:rgb(100%,0%,0%);fill-opacity:1;">
  <use xlink:href="#glyph0-1" x="235.347656" y="168.095703"/>
</g>
</g>
</svg>

<svg xmlns="http://www.w3.org/2000/svg" xmlns:xlink="http://www.w3.org/1999/xlink" width="300pt" height="300pt" viewBox="0 0 300 300"><defs><symbol overflow="visible"><path d="M.594 2.125V-8.47h6V2.126zm.672-.672h4.671V-7.78h-4.67zm0 0"/></symbol><symbol overflow="visible" id="a"><path d="M4.734-7.953c-.867 0-1.554.324-2.062.97-.5.635-.75 1.51-.75 2.624 0 1.094.25 1.965.75 2.61.508.637 1.195.953 2.062.953.852 0 1.532-.316 2.032-.953.507-.645.765-1.516.765-2.61 0-1.113-.257-1.988-.764-2.624-.5-.645-1.18-.97-2.032-.97zm0-.953c1.22 0 2.192.414 2.922 1.234.74.824 1.11 1.93 1.11 3.313 0 1.376-.37 2.477-1.11 3.298C6.926-.24 5.953.17 4.734.17c-1.23 0-2.214-.41-2.953-1.234C1.04-1.882.673-2.984.673-4.36c0-1.382.367-2.488 1.11-3.312.738-.82 1.722-1.234 2.952-1.234zm0 0"/></symbol><symbol overflow="visible" id="b"><path d="M1.172-8.75h1.594l3.89 7.313V-8.75h1.14V0H6.204L2.328-7.313V0H1.172zm0 0"/></symbol><symbol overflow="visible" id="c"><path d="M1.172-8.75H2.36v3.594h4.296V-8.75h1.188V0H6.656v-4.172H2.36V0H1.17zm0 0"/></symbol></defs><g><path fill="#fff" d="M0 0h300v300H0z"/><path d="M35.25 132.28l31.445-1.768M66.695 130.512l8.63 13.172" stroke-width="1.2" stroke="#000" stroke-miterlimit="10" fill="none"/><path d="M75.324 143.684l8.63 13.175M83.953 156.86l15.723-.883" stroke-width="1.2" stroke="#f00" stroke-miterlimit="10" fill="none"/><path d="M99.676 155.977l15.722-.887" stroke-width="1.2" stroke="#000" stroke-miterlimit="10" fill="none"/><path d="M78.953 149.86h10v14h-10zm0 0" fill="#fff"/><use xlink:href="#a" x="78.953" y="160.998" fill="#f00"/><path d="M119.012 155.91l2.054-9.07" stroke-width="1.2" stroke="#000" stroke-miterlimit="10" fill="none"/><path d="M121.066 146.84l2.06-9.067" stroke-width="1.2" stroke="#f00" stroke-miterlimit="10" fill="none"/><path d="M111.785 154.27l2.055-9.067" stroke-width="1.2" stroke="#000" stroke-miterlimit="10" fill="none"/><path d="M113.84 145.203l2.058-9.07" stroke-width="1.2" stroke="#f00" stroke-miterlimit="10" fill="none"/><path d="M132.652 181.44l-12.605-29.393-9.297 6.09zm0 0"/><path d="M114.512 129.953h10v14h-10zm0 0" fill="#fff"/><use xlink:href="#a" x="114.512" y="141.092" fill="#f00"/><path d="M132.652 181.44l-28.007 14.408M132.652 181.44l24.403-19.917M155.008 203.625l-22.356-22.184M104.645 195.848l5.046 31.086M109.69 226.934l31.13 4.808M140.82 231.742l14.188-28.117M155.602 207.28l15.546-2.522" stroke-width="1.2" stroke="#000" stroke-miterlimit="10" fill="none"/><path d="M171.148 204.758l15.543-2.524" stroke-width="1.2" stroke="#f00" stroke-miterlimit="10" fill="none"/><path d="M154.414 199.97l15.547-2.525" stroke-width="1.2" stroke="#000" stroke-miterlimit="10" fill="none"/><path d="M169.96 197.445l15.544-2.523" stroke-width="1.2" stroke="#f00" stroke-miterlimit="10" fill="none"/><path d="M181.098 191.578h10v14h-10zm0 0" fill="#fff"/><use xlink:href="#a" x="181.098" y="202.717" fill="#f00"/><path d="M157.055 161.523l-5.047-31.09M157.055 161.523l14.722 5.59" stroke-width="1.2" stroke="#000" stroke-miterlimit="10" fill="none"/><path d="M171.777 167.113L186.5 172.7" stroke-width="1.2" stroke="#00f" stroke-miterlimit="10" fill="none"/><path d="M152.008 130.434l-29.45-11.172M151.69 122.39l-23.557-8.94M176.41 110.52l-24.402 19.914M122.56 119.262l-5.044-31.09M117.516 88.172l24.398-19.914M124.64 91.922l19.52-15.934M141.914 68.258l29.45 11.172M171.363 79.43l5.047 31.09M164.55 83.727l4.04 24.87" stroke-width="1.2" stroke="#000" stroke-miterlimit="10" fill="none"/><path d="M186.5 172.7l12.203-9.958" stroke-width="1.2" stroke="#00f" stroke-miterlimit="10" fill="none"/><path d="M198.703 162.742l12.2-9.957" stroke-width="1.2" stroke="#000" stroke-miterlimit="10" fill="none"/><path d="M177.5 165.7h18v14h-18zm0 0" fill="#fff"/><g fill="#00f"><use xlink:href="#b" x="177.5" y="176.838"/><use xlink:href="#c" x="186.477" y="176.838"/></g><path d="M214.56 152.19l-2.525-15.545" stroke-width="1.2" stroke="#000" stroke-miterlimit="10" fill="none"/><path d="M212.035 136.645l-2.523-15.543" stroke-width="1.2" stroke="#f00" stroke-miterlimit="10" fill="none"/><path d="M207.246 153.38l-2.523-15.548" stroke-width="1.2" stroke="#000" stroke-miterlimit="10" fill="none"/><path d="M204.723 137.832L202.2 122.29" stroke-width="1.2" stroke="#f00" stroke-miterlimit="10" fill="none"/><path d="M210.902 152.785l14.723 5.586" stroke-width="1.2" stroke="#000" stroke-miterlimit="10" fill="none"/><path d="M225.625 158.37l14.723 5.587" stroke-width="1.2" stroke="#f00" stroke-miterlimit="10" fill="none"/><path d="M200.855 114.695h10v14h-10zm0 0" fill="#fff"/><use xlink:href="#a" x="200.855" y="125.834" fill="#f00"/><path d="M240.348 163.957L252.55 154" stroke-width="1.2" stroke="#f00" stroke-miterlimit="10" fill="none"/><path d="M252.55 154l12.2-9.957" stroke-width="1.2" stroke="#000" stroke-miterlimit="10" fill="none"/><path d="M235.348 156.957h10v14h-10zm0 0" fill="#fff"/><use xlink:href="#a" x="235.348" y="168.096" fill="#f00"/></g></svg>
